X:1
T:Silent Reverence, 87.87.87
T:Silent Reverence, 87.87.87
T:Scott Werdebaugh, 2015
T:St. James Liturgy; Trans. by Gerard Moultrie   
T:Copyright © 2015 by Scott Werdebaugh and New Heart Music -  May Be Freely Copied and Used for Christian worship or devotions with no alterations. All Other Rights Reserved.
T:Copyright © 2015 by Scott Werdebaugh and New Heart Music -  May Be Freely Copied and Used for Christian worship or devotions with no alterations. All Other Rights Reserved.
C:Scott Werdebaugh, 2015
Z:Copyright © 2015 by Scott Werdebaugh and New Heart Music -  May Be Freely Copied and Used for
Z:Christian worship or devotions with no alterations. All Other Rights Reserved.
%%score ( 1 2 ) ( 3 4 ) ( 5 6 ) ( 7 8 )
L:1/8
Q:1/4=104
M:4/4
K:C
V:1 treble 
V:2 treble 
V:3 bass 
V:4 bass 
V:5 treble 
V:6 treble 
V:7 bass 
V:8 bass 
V:1
"^Worshipful" [CE]2 [CE]2 [EG]2 [EG]2 | [CA]2 [CA]2 A2 [EG]2 | [CA]2 [EG]2 [DF]2 [CE]2 | %3
w: 1.~Let all mor- tal|flesh keep si- lence,|And with fear and|
w: 2.~King of kings, yet|born of Mar- y,|As of old on|
w: 3.~Rank on rank the|host of heav- en|Spreads its van- guard|
w: 4.~At His feet the|six- winged ser- aph,|Cher- u- bim with|
 [CE]3 [B,D] [B,D]4 | [CE]2 [EG]2 [DF]2 [CE]2 | [DF]2 [CE]2 [B,D]2 [G,C]2 | %6
w: tremb- ling stand;|Pon- der no- thing|earth- ly mind- ed,|
w: earth He stood,|Lord of lords, in|hu- man ves- ture,|
w: on the way,|As the Light of|light de- scend- eth|
w: sleep- less eye,|Veil their fac- es|to the pres- ence,|
 [CE]2 [EG]2 [DF]3 [CE] | [CE]2 [D^F]2 [DG]4 | [Ec]2 [EG]2 [=FA]2 [EG]2 | %9
w: For with bless- ing|in His hand,|Christ our God to|
w: In the Bod- y|and the Blood|He will give to|
w: From the realms of|end- less day,|That the powers of|
w: As with cease- less|voice they cry:|“Al- le- lu- ia,|
 [DF]2 [CE]2 [B,D]2 [G,C]2 | [CE]2 [EG]2 [FA]2 [GB]2 | [Ac]2 B2"^Play 4 times" !fermata![Ec]4 :| %12
w: earth de- scend- eth,|Our full hom- age|to de- mand.|
w: all the faith- ful|His own self for|heaven- ly food.|
w: hell may van- ish|As the dark- ness|clears a- way.|
w: Al- le- lu- ia|Al- le- lu- ia,|Lord Most High!”|
 ([Ec]4 B4) | !fermata![Ec]6 z2 |] %14
w: ||
w: ||
w: ||
w: A- *|men.|
V:2
 x8 | x4 (CD) x2 | x8 | x8 | x8 | x8 | x8 | x8 | x8 | x8 | x8 | x2 (GF) x4 :| x4 (G2 F2) | x8 |] %14
V:3
 [C,G,]2 [C,G,]2 [C,C]2 [C,C]2 | [F,A,]2 [F,A,]2 (A,B,) [C,C]2 | [F,A,]2 [C,C]2 [G,B,]2 [C,G,]2 | %3
 [C,G,]3 [G,,G,] [G,,G,]4 | [C,G,]2 [C,C]2 [G,B,]2 [C,G,]2 | [G,B,]2 [C,G,]2 [G,,G,]2 [C,E,]2 | %6
 [C,G,]2 [C,C]2 [G,B,]3 [C,G,] | [C,G,]2 [D,A,]2 [G,B,]4 | [C,G,]2 [C,C]2 [F,C]2 [C,C]2 | %9
 [G,B,]2 [C,G,]2 [G,,G,]2 [C,E,]2 | [C,G,]2 [C,C]2 [F,C]2 [G,D]2 | %11
 [F,C]2 [G,D]2 [C,C]4"^Play 4 times" :| ([C,G,]4 [D,F,]4) | [C,G,]6 z2 |] %14
V:4
 x8 | x4 F,2 x2 | x8 | x8 | x8 | x8 | x8 | x8 | x8 | x8 | x8 | x8 :| x8 | x8 |] %14
V:5
 [CE]2 [CE]2 [EG]2 [EG]2 | [CA]2 [CA]2 A2 [EG]2 | [FA]2 [EG]2 [DF]2 [CE]2 | [CE]3 [B,D] [B,D]4 | %4
 [CE]2 [EG]2 [DF]2 [CE]2 | [DF]2 [CE]2 [B,D]2 C2 | [CE]2 [EG]2 [DF]3 [CE] | [CE]2 [D^F]2 [DG]4 | %8
 [Ec]2 [EG]2 [=FA]2 [EG]2 | [DF]2 [CE]2 [B,D]2 C2 | [CE]2 [EG]2 [FA]2 [GB]2 | %11
 [Ac]2 B2"^Play 4 times" !fermata![Ec]4 :| ([Ec]4 B4) | [Ec]6 z2 |] %14
V:6
 x8 | x4 (CD) x2 | x8 | x8 | x8 | x6 C2 | x8 | x8 | x8 | x6 C2 | x8 | x2 (GF) x4 :| x4 (G2 F2) | %13
 x8 |] %14
V:7
 [C,G,]2 [C,G,]2 [C,C]2 [C,C]2 | [F,A,]2 [F,A,]2 (A,B,) [C,C]2 | [F,C]2 [C,C]2 [G,B,]2 [C,G,]2 | %3
 [C,G,]3 [G,,G,] [G,,G,]4 | [C,G,]2 [C,C]2 [G,B,]2 [C,G,]2 | [G,B,]2 [C,G,]2 [G,,G,]2 [C,E,]2 | %6
 [C,G,]2 [C,C]2 [G,B,]3 [C,G,] | [C,G,]2 [D,A,]2 [G,B,]4 | [C,G,]2 [C,C]2 [F,C]2 [C,C]2 | %9
 [G,B,]2 [C,G,]2 [G,,G,]2 [C,E,]2 | [C,G,]2 [C,C]2 [F,C]2 [G,D]2 | %11
 [F,C]2 [G,D]2 !fermata![C,G,]4"^Play 4 times" :| ([C,G,]4 [D,F,]4) | [C,G,]6 z2 |] %14
V:8
 x8 | x4 F,2 x2 | x8 | x8 | x8 | x8 | x8 | x8 | x8 | x8 | x8 | x8 :| x8 | x8 |] %14

